X:40
T: WAT HAEWWK DENN MIENEM SCHAETZCHEN
N: E0652
O: Europa, Mitteleuropa, Deutschland, Hannover
R: Liebes - Lied
M: 2/4
L: 1/16
K: G
D2 | G2B2d2B2 | A3AA2
D2 | G2B2d2B2 | A4z4 |
d4D4 | G3GG2
G2 | G2B2d2B2 | G4z2

